docs/.gitbook/assets/icon-star-16@dark.svg

<svg width="32" height="32" viewBox="0 0 16 16" fill="none" xmlns="http://www.w3.org/2000/svg">
<rect x="0" y="0" width="16" height="16" fill="#181c1f"/>
<path fill-rule="evenodd" clip-rule="evenodd" d="M6.71678 1.95121C7.10558 0.682928 8.89458 0.682932 9.28339 1.95121L10.3035 5.27873H13.6563C14.9526 5.27873 15.4807 6.91962 14.4736 7.69511L11.6992 9.83159L12.7483 13.2537C13.1262 14.4867 11.7029 15.5315 10.6476 14.7188L8.00008 12.6801L5.35258 14.7188C4.29728 15.5315 2.87391 14.4867 3.25191 13.2537L4.30097 9.83159L1.52653 7.69511C0.519479 6.91962 1.04759 5.27873 2.3439 5.27873H5.6967L6.71678 1.95121ZM8.09789 12.6048C8.09781 12.6049 8.09773 12.6049 8.09765 12.605L8.09789 12.6048ZM7.90251 12.605C7.90243 12.6049 7.90235 12.6049 7.90227 12.6048L7.90251 12.605ZM8.00008 2.88283L7.09736 5.82752C6.92502 6.38969 6.40686 6.77873 5.81406 6.77873H2.79503L5.29945 8.70727C5.74598 9.05112 5.92981 9.63608 5.76538 10.1724L4.82825 13.2294L7.18271 11.4163C7.66483 11.0451 8.33533 11.0451 8.81746 11.4163L11.1719 13.2294L10.2348 10.1724C10.0704 9.63608 10.2542 9.05112 10.7007 8.70727L13.2051 6.77873H10.1861C9.5933 6.77873 9.07514 6.38969 8.9028 5.82752L8.00008 2.88283Z" fill="#fff"/>
</svg>

<svg xmlns="http://www.w3.org/2000/svg" width="32" height="32" fill="none" viewBox="0 0 16 16"><path fill="#181c1f" d="M0 0h16v16H0z"/><path fill="#fff" fill-rule="evenodd" d="M6.717 1.951c.389-1.268 2.178-1.268 2.566 0l1.02 3.328h3.353c1.297 0 1.825 1.64.818 2.416l-2.775 2.137 1.05 3.422c.377 1.233-1.046 2.278-2.101 1.465L8 12.68l-2.647 2.04c-1.056.813-2.48-.232-2.101-1.465L4.3 9.832 1.527 7.695c-1.008-.775-.48-2.416.817-2.416h3.353zM8 2.883l-.903 2.945c-.172.562-.69.95-1.283.95H2.795l2.504 1.93c.447.343.63.928.466 1.464l-.937 3.057 2.355-1.813a1.34 1.34 0 0 1 1.634 0l2.355 1.813-.937-3.057a1.35 1.35 0 0 1 .466-1.465l2.504-1.928h-3.019a1.34 1.34 0 0 1-1.283-.951z" clip-rule="evenodd"/></svg>
